build/images/icon-gift.svg

<svg width="18" height="18" viewBox="0 0 18 18" fill="none" xmlns="http://www.w3.org/2000/svg">
<path d="M1.5 10.8883H8.4375V18H2.8125C2.0925 18 1.5 17.4086 1.5 16.69V10.8883Z" fill="white"/>
<path d="M16.5 10.8883V16.69C16.5 17.4086 15.9075 18 15.1875 18H9.5625V10.8883H16.5Z" fill="white"/>
<path d="M0 6.5839V8.4554C0 9.17405 0.5925 9.76544 1.3125 9.76544H8.4375V5.27386H1.3125C0.5925 5.27386 0 5.86525 0 6.5839Z" fill="white"/>
<path d="M16.6875 5.27386H9.5625V9.76544H16.6875C17.4075 9.76544 18 9.17405 18 8.4554V6.5839C18 5.86525 17.4075 5.27386 16.6875 5.27386Z" fill="white"/>
<path d="M9 6.0554C8.8365 6.0554 8.6805 5.98428 8.57475 5.86076C8.4675 5.73724 8.42025 5.5733 8.4435 5.4116C8.721 3.54011 10.1858 0 13.7467 0C15.7793 0.000748596 16.5 1.09669 16.5 2.03543C16.5 3.70405 14.1728 6.0554 9 6.0554ZM13.7467 1.12364C11.0603 1.12364 10.0403 3.67261 9.702 4.91603C11.8215 4.81722 13.158 4.28197 13.9275 3.82608C14.9948 3.19351 15.375 2.48609 15.375 2.03469C15.375 1.36245 14.5343 1.12364 13.7467 1.12364Z" fill="white"/>
<path d="M9.00075 6.0554C3.828 6.0554 1.50075 3.70405 1.50075 2.03543C1.50075 1.09669 2.22225 0.000748596 4.25475 0.000748596C7.815 0.000748596 9.27975 3.54086 9.55725 5.41235C9.5805 5.57405 9.53325 5.73799 9.426 5.86151C9.32025 5.98428 9.16425 6.0554 9.00075 6.0554ZM4.25475 1.12364C3.46725 1.12364 2.62575 1.36319 2.62575 2.03543C2.62575 2.99139 4.3005 4.73338 8.298 4.91678C7.9605 3.67261 6.9405 1.12364 4.25475 1.12364Z" fill="white"/>
</svg>

<svg width="18" height="18" fill="none" xmlns="http://www.w3.org/2000/svg"><path d="M1.5 10.888h6.938V18H2.811c-.72 0-1.312-.591-1.312-1.31v-5.802zm15 0v5.802c0 .719-.592 1.31-1.313 1.31H9.564v-7.112H16.5zM0 6.584v1.871c0 .719.593 1.31 1.313 1.31h7.125V5.274H1.311C.593 5.274 0 5.865 0 6.584zm16.688-1.31H9.563v4.491h7.124c.72 0 1.313-.591 1.313-1.31V6.584c0-.719-.593-1.31-1.313-1.31z" fill="#fff"/><path d="M9 6.055a.56.56 0 01-.556-.643C8.72 3.54 10.186 0 13.747 0 15.779 0 16.5 1.097 16.5 2.035c0 1.669-2.327 4.02-7.5 4.02zm4.747-4.931c-2.687 0-3.707 2.549-4.045 3.792 2.12-.099 3.456-.634 4.226-1.09 1.067-.632 1.447-1.34 1.447-1.791 0-.673-.84-.911-1.628-.911z" fill="#fff"/><path d="M9 6.055c-5.172 0-7.5-2.35-7.5-4.02 0-.938.722-2.034 2.755-2.034 3.56 0 5.025 3.54 5.302 5.411a.562.562 0 01-.556.643zM4.256 1.124c-.788 0-1.63.24-1.63.911 0 .956 1.676 2.698 5.673 2.882-.338-1.244-1.357-3.793-4.043-3.793z" fill="#fff"/></svg>
